X: 20826
T: Johnny's
R: reel
M: 4/4
K: Edorian
dc|:B2 Ad BEEE|BABc dedB|A^GAB ADDE|(3FED FA d2 cd|
BB Ad BEEE|BABc dcde|fdde dcBA|(3Bcd AF EFGA:|
|:Beed efed|BABc dedB|A^GAB ADDE|(3FED FA d2 cd|
Beed efed|BABc dcde|fdde dcBA|(3Bcd AF EFGA:|

